/* XPM */
static char *east_yellow_64x64[] = {
/* largura altura ncores caracteres_por_pixel */
"64 64 4 1",
/* Tabela de Cores */
" 	c #4A3F23", /* Rejunte */
".	c #E2C992", /* Cor Base (Amarelo Creme) */
"+	c #FFF1CE", /* Brilho Superior (Luz) */
"-	c #A69163", /* Sombra Inferior */
/* Matriz dos Pixels (4 azulejos na horizontal x 4 na vertical) */
" +++++++++++++++ +++++++++++++++ +++++++++++++++ +++++++++++++++",
" +..............- +..............- +..............- +..............-",
" +..............- +..............- +..............- +..............-",
" +..............- +..............- +..............- +..............-",
" +..............- +..............- +..............- +..............-",
" +..............- +..............- +..............- +..............-",
" +..............- +..............- +..............- +..............-",
" +..............- +..............- +..............- +..............-",
" +..............- +..............- +..............- +..............-",
" +..............- +..............- +..............- +..............-",
" +..............- +..............- +..............- +..............-",
" +..............- +..............- +..............- +..............-",
" +..............- +..............- +..............- +..............-",
" +..............- +..............- +..............- +..............-",
" +--------------- +--------------- +--------------- +---------------",
"                                                                ",
" +++++++++++++++ +++++++++++++++ +++++++++++++++ +++++++++++++++",
" +..............- +..............- +..............- +..............-",
" +..............- +..............- +..............- +..............-",
" +..............- +..............- +..............- +..............-",
" +..............- +..............- +..............- +..............-",
" +..............- +..............- +..............- +..............-",
" +..............- +..............- +..............- +..............-",
" +..............- +..............- +..............- +..............-",
" +..............- +..............- +..............- +..............-",
" +..............- +..............- +..............- +..............-",
" +..............- +..............- +..............- +..............-",
" +..............- +..............- +..............- +..............-",
" +..............- +..............- +..............- +..............-",
" +..............- +..............- +..............- +..............-",
" +--------------- +--------------- +--------------- +---------------",
"                                                                ",
" +++++++++++++++ +++++++++++++++ +++++++++++++++ +++++++++++++++",
" +..............- +..............- +..............- +..............-",
" +..............- +..............- +..............- +..............-",
" +..............- +..............- +..............- +..............-",
" +..............- +..............- +..............- +..............-",
" +..............- +..............- +..............- +..............-",
" +..............- +..............- +..............- +..............-",
" +..............- +..............- +..............- +..............-",
" +..............- +..............- +..............- +..............-",
" +..............- +..............- +..............- +..............-",
" +..............- +..............- +..............- +..............-",
" +..............- +..............- +..............- +..............-",
" +..............- +..............- +..............- +..............-",
" +..............- +..............- +..............- +..............-",
" +--------------- +--------------- +--------------- +---------------",
"                                                                ",
" +++++++++++++++ +++++++++++++++ +++++++++++++++ +++++++++++++++",
" +..............- +..............- +..............- +..............-",
" +..............- +..............- +..............- +..............-",
" +..............- +..............- +..............- +..............-",
" +..............- +..............- +..............- +..............-",
" +..............- +..............- +..............- +..............-",
" +..............- +..............- +..............- +..............-",
" +..............- +..............- +..............- +..............-",
" +..............- +..............- +..............- +..............-",
" +..............- +..............- +..............- +..............-",
" +..............- +..............- +..............- +..............-",
" +..............- +..............- +..............- +..............-",
" +..............- +..............- +..............- +..............-",
" +..............- +..............- +..............- +..............-",
" +--------------- +--------------- +--------------- +---------------",
"                                                                "
};