/* XPM */
static char *north_red_64x64[] = {
/* largura altura cores caracteres_por_pixel */
"64 64 4 1",
/* Tabela de Cores (Paleta) */
"  c #3A1212", /* Rejunte (Escuro) */
". c #A63C3C", /* Cor de Fundo do Azulejo */
"+ c #D06262", /* Brilho / Luz Superior (Bisel) */
"- c #752626", /* Sombra Inferior (Bisel) */
/* 64 linhas x 64 colunas (4 repetições do bloco de 16px) */
" ++++++++++++++- ++++++++++++++- ++++++++++++++- ++++++++++++++-",
" +............-  +............-  +............-  +............- ",
" +............-  +............-  +............-  +............- ",
" +............-  +............-  +............-  +............- ",
" +............-  +............-  +............-  +............- ",
" +............-  +............-  +............-  +............- ",
" +............-  +............-  +............-  +............- ",
" +............-  +............-  +............-  +............- ",
" +............-  +............-  +............-  +............- ",
" +............-  +............-  +............-  +............- ",
" +............-  +............-  +............-  +............- ",
" +............-  +............-  +............-  +............- ",
" +............-  +............-  +............-  +............- ",
" +............-  +............-  +............-  +............- ",
" +-------------  +-------------  +-------------  +------------- ",
"                                                                ",
" ++++++++++++++- ++++++++++++++- ++++++++++++++- ++++++++++++++-",
" +............-  +............-  +............-  +............- ",
" +............-  +............-  +............-  +............- ",
" +............-  +............-  +............-  +............- ",
" +............-  +............-  +............-  +............- ",
" +............-  +............-  +............-  +............- ",
" +............-  +............-  +............-  +............- ",
" +............-  +............-  +............-  +............- ",
" +............-  +............-  +............-  +............- ",
" +............-  +............-  +............-  +............- ",
" +............-  +............-  +............-  +............- ",
" +............-  +............-  +............-  +............- ",
" +............-  +............-  +............-  +............- ",
" +............-  +............-  +............-  +............- ",
" +-------------  +-------------  +-------------  +------------- ",
"                                                                ",
" ++++++++++++++- ++++++++++++++- ++++++++++++++- ++++++++++++++-",
" +............-  +............-  +............-  +............- ",
" +............-  +............-  +............-  +............- ",
" +............-  +............-  +............-  +............- ",
" +............-  +............-  +............-  +............- ",
" +............-  +............-  +............-  +............- ",
" +............-  +............-  +............-  +............- ",
" +............-  +............-  +............-  +............- ",
" +............-  +............-  +............-  +............- ",
" +............-  +............-  +............-  +............- ",
" +............-  +............-  +............-  +............- ",
" +............-  +............-  +............-  +............- ",
" +............-  +............-  +............-  +............- ",
" +............-  +............-  +............-  +............- ",
" +-------------  +-------------  +-------------  +------------- ",
"                                                                ",
" ++++++++++++++- ++++++++++++++- ++++++++++++++- ++++++++++++++-",
" +............-  +............-  +............-  +............- ",
" +............-  +............-  +............-  +............- ",
" +............-  +............-  +............-  +............- ",
" +............-  +............-  +............-  +............- ",
" +............-  +............-  +............-  +............- ",
" +............-  +............-  +............-  +............- ",
" +............-  +............-  +............-  +............- ",
" +............-  +............-  +............-  +............- ",
" +............-  +............-  +............-  +............- ",
" +............-  +............-  +............-  +............- ",
" +............-  +............-  +............-  +............- ",
" +............-  +............-  +............-  +............- ",
" +............-  +............-  +............-  +............- ",
" +-------------  +-------------  +-------------  +------------- ",
"                                                                "
};