/* XPM */
static char *south_blue_64x64[] = {
/* largura altura cores caracteres_por_pixel */
"64 64 4 1",
/* Tabela de Cores (Paleta) */
"  c #1A3B50", /* Rejunte (Escuro) */
". c #3C7DA6", /* Cor de Fundo do Azulejo */
"+ c #62A4D0", /* Brilho / Luz Superior (Bisel) */
"- c #265575", /* Sombra Inferior (Bisel) */
/* 64 linhas x 64 colunas (4 repetições do bloco de 16px) */
" +++++++++++++-  +++++++++++++-  +++++++++++++-  +++++++++++++- ",
" +............-  +............-  +............-  +............- ",
" +............-  +............-  +............-  +............- ",
" +............-  +............-  +............-  +............- ",
" +............-  +............-  +............-  +............- ",
" +............-  +............-  +............-  +............- ",
" +............-  +............-  +............-  +............- ",
" +............-  +............-  +............-  +............- ",
" +............-  +............-  +............-  +............- ",
" +............-  +............-  +............-  +............- ",
" +............-  +............-  +............-  +............- ",
" +............-  +............-  +............-  +............- ",
" +............-  +............-  +............-  +............- ",
" +............-  +............-  +............-  +............- ",
" +-------------  +-------------  +-------------  +------------- ",
"                                                                ",
" +++++++++++++-  +++++++++++++-  +++++++++++++-  +++++++++++++- ",
" +............-  +............-  +............-  +............- ",
" +............-  +............-  +............-  +............- ",
" +............-  +............-  +............-  +............- ",
" +............-  +............-  +............-  +............- ",
" +............-  +............-  +............-  +............- ",
" +............-  +............-  +............-  +............- ",
" +............-  +............-  +............-  +............- ",
" +............-  +............-  +............-  +............- ",
" +............-  +............-  +............-  +............- ",
" +............-  +............-  +............-  +............- ",
" +............-  +............-  +............-  +............- ",
" +............-  +............-  +............-  +............- ",
" +............-  +............-  +............-  +............- ",
" +-------------  +-------------  +-------------  +------------- ",
"                                                                ",
" +++++++++++++-  +++++++++++++-  +++++++++++++-  +++++++++++++- ",
" +............-  +............-  +............-  +............- ",
" +............-  +............-  +............-  +............- ",
" +............-  +............-  +............-  +............- ",
" +............-  +............-  +............-  +............- ",
" +............-  +............-  +............-  +............- ",
" +............-  +............-  +............-  +............- ",
" +............-  +............-  +............-  +............- ",
" +............-  +............-  +............-  +............- ",
" +............-  +............-  +............-  +............- ",
" +............-  +............-  +............-  +............- ",
" +............-  +............-  +............-  +............- ",
" +............-  +............-  +............-  +............- ",
" +............-  +............-  +............-  +............- ",
" +-------------  +-------------  +-------------  +------------- ",
"                                                                ",
" +++++++++++++-  +++++++++++++-  +++++++++++++-  +++++++++++++- ",
" +............-  +............-  +............-  +............- ",
" +............-  +............-  +............-  +............- ",
" +............-  +............-  +............-  +............- ",
" +............-  +............-  +............-  +............- ",
" +............-  +............-  +............-  +............- ",
" +............-  +............-  +............-  +............- ",
" +............-  +............-  +............-  +............- ",
" +............-  +............-  +............-  +............- ",
" +............-  +............-  +............-  +............- ",
" +............-  +............-  +............-  +............- ",
" +............-  +............-  +............-  +............- ",
" +............-  +............-  +............-  +............- ",
" +............-  +............-  +............-  +............- ",
" +-------------  +-------------  +-------------  +------------- ",
"                                                                "
};