/* XPM */
static char *west_green_64x64[] = {
/* largura altura ncores caracteres_por_pixel */
"64 64 4 1",
/* Tabela de Cores (Paleta Verde) */
" 	c #143521", /* Rejunte */
".	c #2E8B57", /* Cor Base (Verde Esmeralda) */
"+	c #50C878", /* Brilho Superior */
"-	c #1E5936", /* Sombra Inferior */
/* Matriz dos Pixels (4x4 azulejos de 16px) */
" +++++++++++++++ +++++++++++++++ +++++++++++++++ +++++++++++++++",
" +..............- +..............- +..............- +..............-",
" +..............- +..............- +..............- +..............-",
" +..............- +..............- +..............- +..............-",
" +..............- +..............- +..............- +..............-",
" +..............- +..............- +..............- +..............-",
" +..............- +..............- +..............- +..............-",
" +..............- +..............- +..............- +..............-",
" +..............- +..............- +..............- +..............-",
" +..............- +..............- +..............- +..............-",
" +..............- +..............- +..............- +..............-",
" +..............- +..............- +..............- +..............-",
" +..............- +..............- +..............- +..............-",
" +..............- +..............- +..............- +..............-",
" +--------------- +--------------- +--------------- +---------------",
"                                                                ",
" +++++++++++++++ +++++++++++++++ +++++++++++++++ +++++++++++++++",
" +..............- +..............- +..............- +..............-",
" +..............- +..............- +..............- +..............-",
" +..............- +..............- +..............- +..............-",
" +..............- +..............- +..............- +..............-",
" +..............- +..............- +..............- +..............-",
" +..............- +..............- +..............- +..............-",
" +..............- +..............- +..............- +..............-",
" +..............- +..............- +..............- +..............-",
" +..............- +..............- +..............- +..............-",
" +..............- +..............- +..............- +..............-",
" +..............- +..............- +..............- +..............-",
" +..............- +..............- +..............- +..............-",
" +..............- +..............- +..............- +..............-",
" +--------------- +--------------- +--------------- +---------------",
"                                                                ",
" +++++++++++++++ +++++++++++++++ +++++++++++++++ +++++++++++++++",
" +..............- +..............- +..............- +..............-",
" +..............- +..............- +..............- +..............-",
" +..............- +..............- +..............- +..............-",
" +..............- +..............- +..............- +..............-",
" +..............- +..............- +..............- +..............-",
" +..............- +..............- +..............- +..............-",
" +..............- +..............- +..............- +..............-",
" +..............- +..............- +..............- +..............-",
" +..............- +..............- +..............- +..............-",
" +..............- +..............- +..............- +..............-",
" +..............- +..............- +..............- +..............-",
" +..............- +..............- +..............- +..............-",
" +..............- +..............- +..............- +..............-",
" +--------------- +--------------- +--------------- +---------------",
"                                                                ",
" +++++++++++++++ +++++++++++++++ +++++++++++++++ +++++++++++++++",
" +..............- +..............- +..............- +..............-",
" +..............- +..............- +..............- +..............-",
" +..............- +..............- +..............- +..............-",
" +..............- +..............- +..............- +..............-",
" +..............- +..............- +..............- +..............-",
" +..............- +..............- +..............- +..............-",
" +..............- +..............- +..............- +..............-",
" +..............- +..............- +..............- +..............-",
" +..............- +..............- +..............- +..............-",
" +..............- +..............- +..............- +..............-",
" +..............- +..............- +..............- +..............-",
" +..............- +..............- +..............- +..............-",
" +..............- +..............- +..............- +..............-",
" +--------------- +--------------- +--------------- +---------------",
"                                                                "
};